X:1
T:O Herre Gott Begnade Mich
T:O Herre Gott Begnade Mich
T:Ludwig Senfl, 1544
T:Public Domain Courtesy of the Cyber Hymnal™
C:Ludwig Senfl, 1544
Z:Public Domain
Z:Courtesy of the Cyber Hymnal™
%%score ( 1 2 ) ( 3 4 )
L:1/8
Q:1/4=112
M:4/4
K:C
V:1 treble 
V:2 treble 
V:3 bass 
V:4 bass 
V:1
|: z4 [B,E]4 | [DA]2 [CA]2 [DG]2 E2 | [DG]2 [^FA]2 [GB]4 | [DG]4 [GB]2 [Gc]2 | [Fd]4 [EB]4 | %5
 [Ec]2 [EB]2 [^CA]4 | z2 [EG]2 [EA]2 [^GB]2 | [Ac]2 [EA]2 [DB]4 | [^CE]4 [E^c]4 | %9
 [EA]2 [D^G]2 [DA]2 [^CE]2 | [DF]4 [CE]4 :| [Ae]4 [^Ge]2 [Ae]2 | d3 c B2 d2 x2 | %13
 [Ec]2 [Ec]2 [EB]4 | [EA]4 [GB]2 [Gc]2 | [Fd]4 [EG]4 | [DA]2 [DB]2 [Ec]4 | z4 [EG]4 | %18
 [FA]2 [DG]2 [CE]2 [CG]2 | [CF]2 [CE]2 [G,C]4 | [DG]4 [^FA]2 [GB]2 | [Ec]4 [EG]4 | %22
 [FA]2 [DG]2 [^CE]4 | z2 [A,D]2 [CE]2 [DG]2 | [EA]2 [CE]2 F4 | [B,E]8 |] %26
V:2
|: x8 | x6 E2 | x8 | x8 | x8 | x8 | x8 | x8 | x8 | x8 | x8 :| x8 | A4 G4 x2 | x8 | x8 | x8 | x8 | %17
 x8 | x8 | x8 | x8 | x8 | x8 | x8 | x4 (A,B,/C/ DC) | x8 |] %26
V:3
|: z4 [E,G,]4 | [D,F,]2 [A,,E,]2 [B,,D,]2 [C,G,]2 | [B,,G,]2 [A,,C]2 [G,,D]4 | %3
 [G,B,]4 [G,D]2 [E,G,]2 | [D,A,]4 [E,G,]4 | [C,A,]2 [E,^G,]2 [A,,A,]4 | z2 [E,B,]2 [C,C]2 [B,,D]2 | %7
 [A,,E]2 [A,,E]2 [^G,,B,]4 | [A,,A,]4 [A,,A,]4 | [C,A,]2 [B,,B,]2 [A,,E,]2 [A,,A,]2 | %10
 [D,A,]4 [A,,A,]4 :| [A,,C]4 [E,B,]2 [A,^C]2 | D6 z2 B,2 | [C,G,]2 [A,,A,]2 [E,^G,]4 | %14
 [A,C]4 [G,D]2 [E,G,]2 | [D,A,]4 [E,C]4 | [F,A,]2 G,2 [C,G,]4 | z4 [C,C]4 | %18
 [F,,C]2 [G,,B,]2 [A,,A,]2 [E,,G,]2 | [F,,A,]2 [C,G,]2 [C,E,]4 | [B,,G,]4 [A,,C]2 [G,,D]2 | %21
 [A,,C]4 [C,C]4 | [F,,C]2 [G,,_B,]2 [A,,A,]4 | z2 [D,F,]2 [C,G,]2 [B,,G,]2 | %24
 [A,,C]2 [C,G,]2 (F,2 A,2) | [E,^G,]8 |] %26
V:4
|: x8 | x8 | x8 | x8 | x8 | x8 | x8 | x8 | x8 | x8 | x8 :| x8 | ^F,4 G,4 x2 | x8 | x8 | x8 | %16
 x2 G,2 x4 | x8 | x8 | x8 | x8 | x8 | x8 | x8 | x4 D,4 | x8 |] %26

